core/assets/icons/mobile_id.svg

<svg width="24" height="24" viewBox="0 0 24 24" xmlns="http://www.w3.org/2000/svg"><g id="mobile-id"><g id="Group"><path id="Vector" fill-rule="evenodd" clip-rule="evenodd" d="M15.1314 6L12.6121 13.2139L10.0908 6H5V19H8.22257V10.193L11.2036 19H13.5375L16.5707 10.1187V19H20V6H15.1314Z"/><path id="Vector_2" fill-rule="evenodd" clip-rule="evenodd" d="M12.5 0C9.41091 0 7.06597 1.60805 6.76465 4H9.991C10.3313 3.08855 11.2598 2.46076 12.5102 2.46076C13.7626 2.46076 14.6768 3.08855 15.013 4H18.2352C17.9319 1.60805 15.5705 0 12.5 0Z"/></g></g></svg>

<svg xmlns="http://www.w3.org/2000/svg" width="24" height="24" fill="none"><g fill="#191C22" fill-rule="evenodd" clip-rule="evenodd"><path d="m15.131 6-2.519 7.214L10.091 6H5v13h3.223v-8.807L11.203 19h2.335l3.033-8.881V19H20V6h-4.869ZM12.5 0C9.41 0 7.066 1.608 6.765 4H9.99c.34-.911 1.269-1.54 2.52-1.54 1.252 0 2.166.629 2.502 1.54h3.222c-.303-2.392-2.665-4-5.735-4Z"/></g></svg>
